X:1592
T:Polska ur Sven Donats notbok
T:(MA5-32)
R:Polska
O:Småland
B:Sven Donats notbok
B:http://www.smus.se/earkiv/fmk/browselarge.php?lang=sw&katalogid=Ma+5&bildnr=00034
S:Efter Sven Donat
Z:Till abc Jonas Brunskog
M:3/4
L:1/8
K:A
|:agabc'a|bc'/b/ ag/a/ g2|e2 gabc'|babc' a2:|
|:[eA]2 cdef|ecee d2|cAcdef|ecee d2|cA cc BG|A4 A,2:|
(:musicend:)
(:music:)
